T: Liam Childs
M: 9/8
L: 1/8
K: Gmaj
G2A |: "G"B2B BAG Bdd | "D"A2A AGA AGd | "C"G2G GAG GED | "D"BAA ABd "C"edg |
"G"B2B BAG Bdd | "D"A2A AGA AGd | "C"G2G GAG GED |1 "D"BAA ABA "C"G2A :|2 "D"BAA ABA "G"GB/c/d ||
|:"G"ged B2B BAG | ged BAG "C"E2G | "G"ged B2A Bdg | "C"e2d egb "D"a2b |
"b"ged B2B BAG | "e"ged BAG "C"E2G | "D"A2A ABA "a"AGE |1 "C"edB "D"ABA "G"GB/c/d :|2"C"edB "D"ABA "G"G2A |]
